dist/img/favicon/favicon.svg

<svg width="69" height="40" viewBox="0 0 69 40" fill="none" xmlns="http://www.w3.org/2000/svg">
<path d="M14.0243 15.7053H12.482V30.1033H14.0243V15.7053ZM11.5283 15.7053H9.98415V30.1033H11.5283V15.7053ZM11.5283 15.7053H9.98415V30.1033H11.5283V15.7053ZM9.03046 15.7053H7.48812V30.1033H9.03046V15.7053ZM14.0243 0.328125H7.48812V14.7263H14.0243V0.328125ZM6.53442 0.328125H0V30.1033H6.53442V0.328125ZM64.8381 36.4656L62.8431 33.3936H" fill="#FF6B30"/>
</svg>

<svg width="69" height="40" fill="none" xmlns="http://www.w3.org/2000/svg"><path d="M14.024 15.705h-1.542v14.398h1.542V15.705Zm-2.496 0H9.984v14.398h1.544V15.705Zm0 0H9.984v14.398h1.544V15.705Zm-2.498 0H7.488v14.398H9.03V15.705ZM14.024.328H7.488v14.398h6.536V.328Zm-7.49 0H0v29.775h6.534V.328Zm58.304 36.138-1.995-3.072" fill="#FF6B30"/></svg>
